X: 5
T: The Labyrinth
%R: jig
B: Cahusac "Annual Collection of Twenty-four favorite Country Dances For the Year 1809", p.3 #1
F: http://imslp.org/wiki/24_Country_Dances_for_the_Year_1809_%28Various%29
F: http://javanese.imslp.info/files/imglnks/usimg/0/0d/IMSLP351863-PMLP71785-wm_cahusac_24_dances_1809.pdf
Z: 2015 by John Chambers  <jc:trillian.mit.edu>
M: 6/8
L: 1/8
K: G
% - - - - - - - - - - - - - - - - - - - - - - - - - - - - -
G/A/ |\
B2B {c}BAB | c3 {d}cBc | A2A {B}AGA | B3 {d}cBA |\
G2G {A}GFG | {B}A3- A2G | {G}FED DEF | G3- G2 :|
|: B/c/ |\
d2d {e}dcd | e2d {d}cBc | A2A Adc | B3 {d}cBA |\
G2G {A}GFG | {B}A3- A2G | {G}FED DEF | G3- G2 :|
% - - - - - - - - - - Dance description - - - - - - - - - -
%%begintext align
%% 1st & 2d Cu: set & change sides, back again, Down
%% the mid: up again, hands 4 round.
%%endtext

%%sep 1 1 500
%%sep 1 1 500
